**harmony	**harte	**kern	**silbe	**rhyme	**timestamp	**phrase
*M4/4	*M4/4	*ICvox	*	*	*	*
*	*	*VRlead	*	*	*	*
*	*	*Hstimme	*	*	*	*
*D:	*D:	*D:	*	*	*	*
*	*	*M4/4	*	*	*	*
*	*	*clefF4	*	*	*	*
1r;	1r	r;	.	.	0	.
=1	=1	=1	=1	=1	=1	=1
*>Letter>A	*>Letter>A	*>Letter>A	*>Letter>A	*>Letter>A	*>Letter>A	*>Letter>A
*>Label>Intro	*>Label>Intro	*>Label>Intro	*>Label>Intro	*>Label>Intro	*>Label>Intro	*>Label>Intro
1DM	D:maj	1r	.	.	0.877	newline
=2	=2	=2	=2	=2	=2	=2
1DM	D:maj/b7	1r	.	.	2.589	.
=3	=3	=3	=3	=3	=3	=3
1DM	D:maj/6	1r	.	.	4.301	.
=4	=4	=4	=4	=4	=4	=4
1DM	D:maj/5	1r	.	.	6.013	.
=5	=5	=5	=5	=5	=5	=5
1DM	D:maj	1r	.	.	7.725	.
=6	=6	=6	=6	=6	=6	=6
1DM	D:maj/b7	1r	.	.	9.436	.
=7	=7	=7	=7	=7	=7	=7
1DM	D:maj/6	1r	.	.	11.148	.
=8	=8	=8	=8	=8	=8	=8
1DM	D:maj/5	1r	.	.	12.86	.
=9	=9	=9	=9	=9	=9	=9
*>Letter>B	*>Letter>B	*>Letter>B	*>Letter>B	*>Letter>B	*>Letter>B	*>Letter>B
*>Label>Verse	*>Label>Verse	*>Label>Verse	*>Label>Verse	*>Label>Verse	*>Label>Verse	*>Label>Verse
1DM	D:maj	4r	.	.	14.572	newline
.	.	8r	.	.	.	.
.	.	8D	I	.	.	.
.	.	8F#	walk	.	.	.
.	.	4G	a-	.	.	.
.	.	[8A	-long	.	.	.
=10	=10	=10	=10	=10	=10	=10
1AM	A:maj/3	8A]	_	.	16.179	.
.	.	4F#	the	.	.	.
.	.	[8A	ci	.	.	.
.	.	8A]	_	.	.	.
.	.	4B	ty	.	.	.
.	.	[8c	streets	A	.	.
=11	=11	=11	=11	=11	=11	=11
1CM	C:maj	8c]	_	.	17.785	.
.	.	4c	you	.	.	.
.	.	[8B	used	.	.	.
.	.	8B]	_	.	.	.
.	.	4A	to	.	.	.
.	.	[8G	walk	.	.	.
=12	=12	=12	=12	=12	=12	=12
1GM	G:maj/3	8G]	_	.	19.392	.
.	.	4A	a-	.	.	.
.	.	[8G	-long	.	.	.
.	.	8G]	_	.	.	.
.	.	4F#	with	.	.	.
.	.	[8E	me	A	.	.
=13	=13	=13	=13	=13	=13	=13
1B-M	B-:maj	4E]	_	.	20.999	.
.	.	4r	.	.	.	.
.	.	2r	.	.	.	.
=14	=14	=14	=14	=14	=14	=14
1DM	D:maj	4r	.	.	22.606	.
.	.	8r	.	.	.	.
.	.	8D	And	.	.	.
.	.	8F#	ev-	.	.	.
.	.	4G	-'ry	.	.	.
.	.	[8A	step	.	.	.
=15	=15	=15	=15	=15	=15	=15
1AM	A:maj/3	8A]	_	.	24.213	.
.	.	4F#	I	.	.	.
.	.	[8A	take	.	.	.
.	.	8A]	_	.	.	.
.	.	4B	re-	.	.	.
.	.	[8c	-minds	.	.	.
=16	=16	=16	=16	=16	=16	=16
1CM	C:maj	8c]	_	.	25.82	.
.	.	4c	me	A	.	.
.	.	[8B	of	.	.	.
.	.	8B]	_	.	.	.
.	.	4A	just	.	.	.
.	.	[8G	how	.	.	.
=17	=17	=17	=17	=17	=17	=17
1GM	G:maj/3	4G]	_	.	27.426	.
.	.	8r	.	.	.	.
.	.	8D	we	.	.	.
.	.	4G	used	.	.	.
.	.	8A	to	.	.	.
.	.	8Bq	_	.	.	.
.	.	[8c	be	A	.	.
=18	=18	=18	=18	=18	=18	=18
1GM	G:maj/3	8c]	_	.	29.033	.
.	.	8B	_	.	.	.
.	.	8r	.	.	.	.
.	.	8G	Oh,	.	.	.
.	.	4B	how	.	.	.
.	.	4c#	can	.	.	.
=19	=19	=19	=19	=19	=19	=19
1GM	G:maj/5	2d	I	.	30.64	newline
.	.	4r	.	.	.	.
.	.	8r	.	.	.	.
.	.	8~c#	for-	.	.	.
=20	=20	=20	=20	=20	=20	=20
.	.	8dq	_	.	.	.
1DM	D:maj	4e	-get	.	32.226	.
.	.	4d	you,	.	.	.
.	.	2A	girl	.	.	.
=21	=21	=21	=21	=21	=21	=21
1Em	E:min	4r	.	.	33.813	.
.	.	8r	.	.	.	.
.	.	8A	When	.	.	.
.	.	4d	there	.	.	.
.	.	4e	is	.	.	.
=22	=22	=22	=22	=22	=22	=22
*>Letter>C	*>Letter>C	*>Letter>C	*>Letter>C	*>Letter>C	*>Letter>C	*>Letter>C
*>Label>Chorus	*>Label>Chorus	*>Label>Chorus	*>Label>Chorus	*>Label>Chorus	*>Label>Chorus	*>Label>Chorus
1DM	D:maj	4f#	al-	.	35.399	newline
.	.	4f#	-ways	.	.	.
.	.	4g	some-	.	.	.
.	.	8f#	-thing	.	.	.
.	.	[8e	there	.	.	.
=23	=23	=23	=23	=23	=23	=23
1GM	G:maj/5	8e]	_	.	37.014	.
.	.	4f#	to	.	.	.
.	.	8g	re-	.	.	.
.	.	8eq	_	.	.	.
.	.	4f#	-mind	.	.	.
.	.	8e	me	A	.	.
.	.	[8d	_	.	.	.
=24	=24	=24	=24	=24	=24	=24
1DM	D:maj	4d]	_	.	38.629	.
.	.	4r	.	.	.	.
.	.	2r	.	.	.	.
=25	=25	=25	=25	=25	=25	=25
1DM	D:maj	1r	.	.	40.244	.
=26	=26	=26	=26	=26	=26	=26
1DM	D:maj	4f#	Al-	.	41.859	.
.	.	4f#	-ways	.	.	.
.	.	4g	some-	.	.	.
.	.	8a	-thing	.	.	.
.	.	8f#q	_	.	.	.
.	.	[8e	there	.	.	.
=27	=27	=27	=27	=27	=27	=27
1GM	G:maj/5	4e]	_	.	43.473	.
.	.	8d	to	.	.	.
.	.	8B	re-	.	.	.
.	.	8e#q	_	.	.	.
.	.	4f#	-mind	.	.	.
.	.	8e#q	_	.	.	.
.	.	[4f#	me	A	.	.
=28	=28	=28	=28	=28	=28	=28
1DM	D:maj	4.f#]	_	.	45.088	.
.	.	8r	.	.	.	.
.	.	2r	.	.	.	.
=29	=29	=29	=29	=29	=29	=29
1DM	D:maj	1r	.	.	46.703	.
=30	=30	=30	=30	=30	=30	=30
*>Letter>B	*>Letter>B	*>Letter>B	*>Letter>B	*>Letter>B	*>Letter>B	*>Letter>B
*>Label>Verse	*>Label>Verse	*>Label>Verse	*>Label>Verse	*>Label>Verse	*>Label>Verse	*>Label>Verse
1DM	D:maj	4r	.	.	48.318	newline
.	.	8r	.	.	.	.
.	.	8~D	As	.	.	.
.	.	8F#	sha-	.	.	.
.	.	4G	-dows	.	.	.
.	.	[8A	fall,	B	.	.
=31	=31	=31	=31	=31	=31	=31
1AM	A:maj/3	4A]	_	.	49.932	.
.	.	8F#	I	.	.	.
.	.	[8A	pass	.	.	.
.	.	8A]	_	.	.	.
.	.	4B	a	.	.	.
.	.	[8c	small	B	.	.
=32	=32	=32	=32	=32	=32	=32
1CM	C:maj	8c]	_	.	51.545	.
.	.	4c	ca-	.	.	.
.	.	[8B	-fe	.	.	.
.	.	8B]	_	.	.	.
.	.	8A	where	.	.	.
.	.	4r	.	.	.	.
=33	=33	=33	=33	=33	=33	=33
1GM	G:maj/3	4G	we	.	53.158	.
.	.	4A	would	.	.	.
.	.	4G	dance	.	.	.
.	.	8F#	at	.	.	.
.	.	[8E	night	C	.	.
=34	=34	=34	=34	=34	=34	=34
1B-M	B-:maj	4E]	_	.	54.771	.
.	.	4r	.	.	.	.
.	.	2r	.	.	.	.
=35	=35	=35	=35	=35	=35	=35
1DM	D:maj	4r	.	.	56.385	.
.	.	8r	.	.	.	.
.	.	8~D	And	.	.	.
.	.	8F#	I	.	.	.
.	.	4G	can't	.	.	.
.	.	[8A	help	.	.	.
=36	=36	=36	=36	=36	=36	=36
1AM	A:maj/3	8A]	_	.	57.998	.
.	.	8r	.	.	.	.
.	.	8F#	re-	.	.	.
.	.	[8A	-call	B	.	.
.	.	8A]	_	.	.	.
.	.	4B	ing	.	.	.
.	.	8r	.	.	.	.
=37	=37	=37	=37	=37	=37	=37
1CM	C:maj	8c	how	.	59.611	.
.	.	4c	it	.	.	.
.	.	[8B	felt	.	.	.
.	.	4B]	_	.	.	.
.	.	8~D	_	.	.	.
.	.	8G	to	.	.	.
=38	=38	=38	=38	=38	=38	=38
1GM	G:maj/3	4D	kiss	.	61.224	.
.	.	8r	.	.	.	.
.	.	8D	and	.	.	.
.	.	4G	hold	.	.	.
.	.	8A	you	.	.	.
.	.	8Bq	_	.	.	.
.	.	[8c	tight	C	.	.
=39	=39	=39	=39	=39	=39	=39
1GM	G:maj/3	8c]	_	.	62.838	.
.	.	8B	_	.	.	.
.	.	8r	.	.	.	.
.	.	8G	Oh,	.	.	.
.	.	4B	how	.	.	.
.	.	4c#	can	.	.	.
=40	=40	=40	=40	=40	=40	=40
1GM	G:maj/5	2d	I	.	64.451	newline
.	.	4r	.	.	.	.
.	.	8r	.	.	.	.
.	.	8~c#	for-	.	.	.
=41	=41	=41	=41	=41	=41	=41
.	.	8dq	_	.	.	.
1DM	D:maj	4e	-get	.	66.043	.
.	.	4d	you,	.	.	.
.	.	2A	girl	.	.	.
=42	=42	=42	=42	=42	=42	=42
1Em	E:min	4r	.	.	67.634	.
.	.	8r	.	.	.	.
.	.	8A	When	.	.	.
.	.	4d	there	.	.	.
.	.	4e	is	.	.	.
=43	=43	=43	=43	=43	=43	=43
*>Letter>C	*>Letter>C	*>Letter>C	*>Letter>C	*>Letter>C	*>Letter>C	*>Letter>C
*>Label>Chorus	*>Label>Chorus	*>Label>Chorus	*>Label>Chorus	*>Label>Chorus	*>Label>Chorus	*>Label>Chorus
1DM	D:maj	4f#	al-	.	69.226	newline
.	.	4f#	-ways	.	.	.
.	.	4g	some-	.	.	.
.	.	8f#	-thing	.	.	.
.	.	[8e	there	.	.	.
=44	=44	=44	=44	=44	=44	=44
1GM	G:maj/5	8e]	_	.	70.831	.
.	.	4f#	to	.	.	.
.	.	8g	re-	.	.	.
.	.	8eq	_	.	.	.
.	.	4f#	-mind	.	.	.
.	.	8e	me	A	.	.
.	.	[8d	_	.	.	.
=45	=45	=45	=45	=45	=45	=45
1DM	D:maj	4d]	_	.	72.435	.
.	.	4r	.	.	.	.
.	.	2r	.	.	.	.
=46	=46	=46	=46	=46	=46	=46
1DM	D:maj	1r	.	.	74.04	.
=47	=47	=47	=47	=47	=47	=47
1DM	D:maj	4f#	Al-	.	75.645	.
.	.	4f#	-ways	.	.	.
.	.	4g	some-	.	.	.
.	.	8a	-thing	.	.	.
.	.	8f#q	_	.	.	.
.	.	[8e	there	.	.	.
=48	=48	=48	=48	=48	=48	=48
1GM	G:maj/5	4e]	_	.	77.249	.
.	.	8d	to	.	.	.
.	.	8B	re-	.	.	.
.	.	8e#q	_	.	.	.
.	.	4f#	-mind	.	.	.
.	.	8e#q	_	.	.	.
.	.	[4f#	me	A	.	.
=49	=49	=49	=49	=49	=49	=49
1DM	D:maj	4.f#]	_	.	78.854	.
.	.	8r	.	.	.	.
.	.	2r	.	.	.	.
=50	=50	=50	=50	=50	=50	=50
1DM	D:maj	4r	.	.	80.459	.
.	.	8r	.	.	.	.
.	.	8f	I	.	.	.
.	.	4e	_	.	.	.
.	.	4d	was	.	.	.
=51	=51	=51	=51	=51	=51	=51
*>Letter>D	*>Letter>D	*>Letter>D	*>Letter>D	*>Letter>D	*>Letter>D	*>Letter>D
*>Label>Bridge	*>Label>Bridge	*>Label>Bridge	*>Label>Bridge	*>Label>Bridge	*>Label>Bridge	*>Label>Bridge
1F#m	F#:min	2.c#	born	.	82.063	newline
.	.	8c#	to	.	.	.
.	.	8d	_	.	.	.
=52	=52	=52	=52	=52	=52	=52
1Bm	B:min	4B	love	.	83.677	.
.	.	[4F#	her	.	.	.
.	.	2F#]	_	.	.	.
=53	=53	=53	=53	=53	=53	=53
1Bm	B:min	4r	.	.	85.291	.
.	.	8r	.	.	.	.
.	.	8F#	and	.	.	.
.	.	4B	I	.	.	.
.	.	4d	will	.	.	.
=54	=54	=54	=54	=54	=54	=54
.	.	8e#q	_	.	.	.
1GM	G:maj	[2f#	ne	.	86.905	.
.	.	8f#]	_	.	.	.
.	.	8g	ver	.	.	.
.	.	4f#	be	.	.	.
=55	=55	=55	=55	=55	=55	=55
1AM	A:maj	4e	free	A	88.519	.
.	.	8r	.	.	.	.
.	.	8A	you'll	.	.	.
.	.	8B	al-	.	.	.
.	.	8d	-ways	.	.	.
.	.	8d	be	.	.	.
.	.	8d	a	.	.	.
=56	=56	=56	=56	=56	=56	=56
.	.	8dq	_	.	.	.
1DM	D:maj	4.e	part	.	90.133	.
.	.	[8d	of	.	.	.
.	.	8d]	_	.	.	.
.	.	4.d	me	A	.	.
=57	=57	=57	=57	=57	=57	=57
1DM	D:maj	4r	.	.	91.747	.
.	.	8r	.	.	.	.
.	.	8D	Whoa,	.	.	.
.	.	8E	_	.	.	.
.	.	8F#	_	.	.	.
.	.	8E	whoa,	.	.	.
.	.	8D	_	.	.	.
=58	=58	=58	=58	=58	=58	=58
2.DM	D:maj	8E	whoa	.	93.361	.
.	.	[4.F#	_	.	.	.
.	.	4F#]	_	.	.	.
4GM	G:maj/5	4r	.	.	94.572	.
=59	=59	=59	=59	=59	=59	=59
1DM	D:maj	1r	.	.	94.975	.
=60	=60	=60	=60	=60	=60	=60
1F#m	F#:min	1r	.	.	96.589	newline
=61	=61	=61	=61	=61	=61	=61
1Bm	B:min	1r	.	.	98.184	.
=62	=62	=62	=62	=62	=62	=62
1Bm	B:min	1r	.	.	99.78	.
=63	=63	=63	=63	=63	=63	=63
1GM	G:maj	1r	.	.	101.375	.
=64	=64	=64	=64	=64	=64	=64
1AM	A:maj	1r	.	.	102.97	.
=65	=65	=65	=65	=65	=65	=65
*>Letter>A	*>Letter>A	*>Letter>A	*>Letter>A	*>Letter>A	*>Letter>A	*>Letter>A
*>Label>Interlude	*>Label>Interlude	*>Label>Interlude	*>Label>Interlude	*>Label>Interlude	*>Label>Interlude	*>Label>Interlude
1DM	D:maj	1r	.	.	104.565	newline
=66	=66	=66	=66	=66	=66	=66
1DM	D:maj/b7	1r	.	.	106.182	.
=67	=67	=67	=67	=67	=67	=67
1DM	D:maj/6	1r	.	.	107.8	.
=68	=68	=68	=68	=68	=68	=68
1DM	D:maj/5	1r	.	.	109.417	.
=69	=69	=69	=69	=69	=69	=69
1DM	D:maj	1r	.	.	111.034	.
=70	=70	=70	=70	=70	=70	=70
1DM	D:maj/b7	1r	.	.	112.651	.
=71	=71	=71	=71	=71	=71	=71
1DM	D:maj/6	1r	.	.	114.268	.
=72	=72	=72	=72	=72	=72	=72
1DM	D:maj/5	1r	.	.	115.885	.
=73	=73	=73	=73	=73	=73	=73
*>Letter>B	*>Letter>B	*>Letter>B	*>Letter>B	*>Letter>B	*>Letter>B	*>Letter>B
*>Label>Verse	*>Label>Verse	*>Label>Verse	*>Label>Verse	*>Label>Verse	*>Label>Verse	*>Label>Verse
1DM	D:maj	4r	.	.	117.502	newline
.	.	8r	.	.	.	.
.	.	8D	If	.	.	.
.	.	8F#	you	.	.	.
.	.	4G	should	.	.	.
.	.	8~G	find	.	.	.
=74	=74	=74	=74	=74	=74	=74
1AM	A:maj/3	4A	_	.	119.107	.
.	.	8F#	you	.	.	.
.	.	[8A	miss	.	.	.
.	.	8A]	_	.	.	.
.	.	4B	the	.	.	.
.	.	8Bq	_	.	.	.
.	.	[8c	sweet	A	.	.
=75	=75	=75	=75	=75	=75	=75
1CM	C:maj	8c]	_	.	120.711	.
.	.	4c	and	.	.	.
.	.	[8B	ten	.	.	.
.	.	8B]	_	.	.	.
.	.	4A	der	.	.	.
.	.	[8G	love	.	.	.
=76	=76	=76	=76	=76	=76	=76
1GM	G:maj/3	8G]	_	.	122.316	.
.	.	4A	we	.	.	.
.	.	[8G	used	.	.	.
.	.	8G]	_	.	.	.
.	.	4F#	to	.	.	.
.	.	[8E	share	E	.	.
=77	=77	=77	=77	=77	=77	=77
1B-M	B-:maj	2E]	_	.	123.92	.
.	.	2r	.	.	.	.
=78	=78	=78	=78	=78	=78	=78
1DM	D:maj	4r	.	.	125.525	.
.	.	8r	.	.	.	.
.	.	8~D	just	.	.	.
.	.	8F#	go	.	.	.
.	.	4G	back	.	.	.
.	.	[8A	to	.	.	.
=79	=79	=79	=79	=79	=79	=79
1AM	A:maj/3	8A]	_	.	127.129	.
.	.	4F#	the	.	.	.
.	.	[8A	pla	.	.	.
.	.	8A]	_	.	.	.
.	.	4B	ces	.	.	.
.	.	8r	.	.	.	.
=80	=80	=80	=80	=80	=80	=80
1CM	C:maj	4c	where	E	128.734	.
.	.	8c	we	.	.	.
.	.	[8B	used	.	.	.
.	.	8B]	_	.	.	.
.	.	4A	to	.	.	.
.	.	[8G	go	.	.	.
=81	=81	=81	=81	=81	=81	=81
1GM	B:maj	4G]	_	.	130.338	.
.	.	8r	.	.	.	.
.	.	8D	and	.	.	.
.	.	4G	I'll	.	.	.
.	.	8A	be	.	.	.
.	.	8Bq	_	.	.	.
.	.	[8c	there	E	.	.
=82	=82	=82	=82	=82	=82	=82
1GM	B:maj	8c]	_	.	131.943	.
.	.	8B	_	.	.	.
.	.	8r	.	.	.	.
.	.	8G	Oh,	.	.	.
.	.	4B	how	.	.	.
.	.	4c#	can	.	.	.
=83	=83	=83	=83	=83	=83	=83
1GM	G:maj/5	2d	I	.	133.547	newline
.	.	4r	.	.	.	.
.	.	8r	.	.	.	.
.	.	8~c#	for-	.	.	.
=84	=84	=84	=84	=84	=84	=84
.	.	8dq	_	.	.	.
1DM	D:maj	4e	-get	.	135.149	.
.	.	4d	you,	.	.	.
.	.	2A	girl	.	.	.
=85	=85	=85	=85	=85	=85	=85
1Em	E:min	4r	.	.	136.75	.
.	.	8r	.	.	.	.
.	.	8A	When	.	.	.
.	.	4d	there	.	.	.
.	.	4e	is	.	.	.
=86	=86	=86	=86	=86	=86	=86
*>Letter>C	*>Letter>C	*>Letter>C	*>Letter>C	*>Letter>C	*>Letter>C	*>Letter>C
*>Label>Chorus	*>Label>Chorus	*>Label>Chorus	*>Label>Chorus	*>Label>Chorus	*>Label>Chorus	*>Label>Chorus
1DM	D:maj	4f#	al-	.	138.351	newline
.	.	4f#	-ways	.	.	.
.	.	4g	some-	.	.	.
.	.	8f#	-thing	.	.	.
.	.	[8e	there	.	.	.
=87	=87	=87	=87	=87	=87	=87
1GM	G:maj/5	8e]	_	.	139.958	.
.	.	4f#	to	.	.	.
.	.	8g	re-	.	.	.
.	.	8eq	_	.	.	.
.	.	4f#	-mind	.	.	.
.	.	8e	me	A	.	.
.	.	[8d	_	.	.	.
=88	=88	=88	=88	=88	=88	=88
1DM	D:maj	4d]	_	.	141.566	.
.	.	4r	.	.	.	.
.	.	2r	.	.	.	.
=89	=89	=89	=89	=89	=89	=89
1DM	D:maj	1r	.	.	143.173	.
=90	=90	=90	=90	=90	=90	=90
1DM	D:maj	4f#	Al-	.	144.78	.
.	.	4f#	-ways	.	.	.
.	.	4g	some-	.	.	.
.	.	8a	-thing	.	.	.
.	.	8f#q	_	.	.	.
.	.	[8e	there	.	.	.
=91	=91	=91	=91	=91	=91	=91
1GM	G:maj/5	4e]	_	.	146.387	.
.	.	8d	to	.	.	.
.	.	8B	re-	.	.	.
.	.	8e#q	_	.	.	.
.	.	4f#	-mind	.	.	.
.	.	8e#q	_	.	.	.
.	.	[4f#	me	A	.	.
=92	=92	=92	=92	=92	=92	=92
1DM	D:maj	2f#]	_	.	147.994	.
.	.	2r	.	.	.	.
=93	=93	=93	=93	=93	=93	=93
1DM	D:maj	4r	.	.	149.602	.
.	.	8r	.	.	.	.
.	.	8f	I	.	.	.
.	.	4e	_	.	.	.
.	.	4d	was	.	.	.
=94	=94	=94	=94	=94	=94	=94
*>Letter>D	*>Letter>D	*>Letter>D	*>Letter>D	*>Letter>D	*>Letter>D	*>Letter>D
*>Label>Bridge	*>Label>Bridge	*>Label>Bridge	*>Label>Bridge	*>Label>Bridge	*>Label>Bridge	*>Label>Bridge
1F#m	F#:min	2.c#	born	.	151.209	newline
.	.	8c#	to	.	.	.
.	.	8d	_	.	.	.
=95	=95	=95	=95	=95	=95	=95
1Bm	B:min	4B	love	.	152.827	.
.	.	[4F#	her	.	.	.
.	.	2F#]	_	.	.	.
=96	=96	=96	=96	=96	=96	=96
1Bm	B:min	4r	.	.	154.444	.
.	.	8r	.	.	.	.
.	.	8F#	And	.	.	.
.	.	4B	I	.	.	.
.	.	4d	will	.	.	.
=97	=97	=97	=97	=97	=97	=97
.	.	8e#q	_	.	.	.
1GM	G:maj	[2f#	ne	.	156.062	.
.	.	8f#]	_	.	.	.
.	.	8g	ver	.	.	.
.	.	4f#	be	.	.	.
=98	=98	=98	=98	=98	=98	=98
1AM	A:maj	4e	free	A	157.68	.
.	.	8r	.	.	.	.
.	.	8A	you'll	.	.	.
.	.	8B	al-	.	.	.
.	.	8d	-ways	.	.	.
.	.	8d	be	.	.	.
.	.	8d	a	.	.	.
=99	=99	=99	=99	=99	=99	=99
.	.	8dq	_	.	.	.
1DM	D:maj	4.e	part	.	159.298	.
.	.	[8d	of	.	.	.
.	.	8d]	_	.	.	.
.	.	4.d	me	A	.	.
=100	=100	=100	=100	=100	=100	=100
1DM	D:maj	4r	.	.	160.916	.
.	.	8r	.	.	.	.
.	.	8A	Cuz	.	.	.
.	.	4d	there	.	.	.
.	.	4e	is	.	.	.
=101	=101	=101	=101	=101	=101	=101
*>Letter>C	*>Letter>C	*>Letter>C	*>Letter>C	*>Letter>C	*>Letter>C	*>Letter>C
*>Label>Outro	*>Label>Outro	*>Label>Outro	*>Label>Outro	*>Label>Outro	*>Label>Outro	*>Label>Outro
1DM	D:maj	4f#	al-	.	162.533	newline
.	.	4f#	-ways	.	.	.
.	.	4g	some-	.	.	.
.	.	8f#	-thing	.	.	.
.	.	[8e	there	.	.	.
=102	=102	=102	=102	=102	=102	=102
1GM	G:maj/5	8e]	_	.	164.099	.
.	.	4f#	to	.	.	.
.	.	8g	re-	.	.	.
.	.	8eq	_	.	.	.
.	.	4f#	-mind	.	.	.
.	.	8e	me	A	.	.
.	.	[8d	_	.	.	.
=103	=103	=103	=103	=103	=103	=103
1DM	D:maj	4d]	_	.	165.665	.
.	.	4r	.	.	.	.
.	.	2r	.	.	.	.
=104	=104	=104	=104	=104	=104	=104
1DM	D:maj	1r	.	.	167.231	.
=105	=105	=105	=105	=105	=105	=105
1DM	D:maj	4f#	Al-	.	168.796	.
.	.	4f#	-ways	.	.	.
.	.	4g	some-	.	.	.
.	.	8f#	-thing	.	.	.
.	.	[8e	there	.	.	.
=106	=106	=106	=106	=106	=106	=106
1GM	G:maj/5	8e]	_	.	170.362	.
.	.	4f#	to	.	.	.
.	.	8g	re-	.	.	.
.	.	8eq	_	.	.	.
.	.	4f#	-mind	.	.	.
.	.	8e	me	A	.	.
.	.	[8d	_	.	.	.
=107	=107	=107	=107	=107	=107	=107
1DM	D:maj	4d]	_	.	171.928	.
.	.	4r	.	.	.	.
.	.	2r	.	.	.	.
=108	=108	=108	=108	=108	=108	=108
1DM	D:maj	1r	.	.	173.494	.
=109	=109	=109	=109	=109	=109	=109
1DM	D:maj	4f#	Al-	.	175.059	.
.	.	4f#	-ways	.	.	.
.	.	4g	some-	.	.	.
.	.	8a	-thing	.	.	.
.	.	8f#q	_	.	.	.
.	.	[8e	there	.	.	.
=110	=110	=110	=110	=110	=110	=110
1GM	G:maj/5	4e]	_	.	176.625	.
.	.	8d	_	.	.	.
.	.	8B	re-	.	.	.
.	.	8e#q	_	.	.	.
.	.	4f#	-mind	.	.	.
.	.	8e#q	_	.	.	.
.	.	[4f#	me	A	.	.
=111	=111	=111	=111	=111	=111	=111
1DM	D:maj	2f#]	_	.	178.191	.
.	.	2r	.	.	.	.
=112	=112	=112	=112	=112	=112	=112
1DM	D:maj	1r	.	.	179.757	.
=113	=113	=113	=113	=113	=113	=113
1DM	D:maj	4f#	Al-	.	181.322	.
.	.	4f#	-ways	.	.	.
.	.	4g	some-	.	.	.
.	.	8a	-thing	.	.	.
.	.	8f#q	_	.	.	.
.	.	[8e	there	.	.	.
=114	=114	=114	=114	=114	=114	=114
1GM	G:maj/5	4e]	_	.	182.888	.
.	.	8d	_	.	.	.
.	.	8B	re-	.	.	.
.	.	8e#q	_	.	.	.
.	.	4f#	-mind	.	.	.
.	.	8e#q	_	.	.	.
.	.	[4f#	me	A	.	.
=115	=115	=115	=115	=115	=115	=115
1DM	D:maj	2f#]	_	.	184.454	.
.	.	2r	.	.	.	.
=116	=116	=116	=116	=116	=116	=116
1DM	D:maj	1r	.	.	186.02	.
=117	=117	=117	=117	=117	=117	=117
1DM	D:maj	4f#	Al-	.	187.585	.
.	.	4f#	-ways	.	.	.
.	.	4g	some-	.	.	.
.	.	8f#	-thing	.	.	.
.	.	[8e	there	.	.	.
=118	=118	=118	=118	=118	=118	=118
1GM	G:maj/5	8e]	_	.	189.151	.
.	.	4f#	to	.	.	.
.	.	8g	re-	.	.	.
.	.	8eq	_	.	.	.
.	.	4f#	-mind	.	.	.
.	.	8e	me	A	.	.
.	.	[8d	_	.	.	.
=119	=119	=119	=119	=119	=119	=119
1DM	D:maj	4d]	_	.	190.717	.
.	.	4r	.	.	.	.
.	.	2r	.	.	.	.
=120	=120	=120	=120	=120	=120	=120
1DM	D:maj	1r	.	.	192.283	.
=121	=121	=121	=121	=121	=121	=121
1DM	D:maj	4f#	Al-	.	193.848	.
.	.	4f#	-ways	.	.	.
.	.	4g	some-	.	.	.
.	.	8a	-thing	.	.	.
.	.	8f#q	_	.	.	.
.	.	[8e	there	.	.	.
=122	=122	=122	=122	=122	=122	=122
1GM	G:maj/5	4e]	_	.	195.414	.
.	.	8d	_	.	.	.
.	.	8B	re-	.	.	.
.	.	8e#q	_	.	.	.
.	.	4f#	-mind	.	.	.
.	.	8e#q	_	.	.	.
.	.	[4f#	me	A	.	.
=123	=123	=123	=123	=123	=123	=123
1DM	D:maj	2f#]	_	.	196.98	.
.	.	2r	.	.	.	.
=124	=124	=124	=124	=124	=124	=124
1DM	D:maj	1r	.	.	198.546	.
=125	=125	=125	=125	=125	=125	=125
1DM	D:maj	4f#	Al-	.	200.111	.
.	.	4f#	-ways	.	.	.
.	.	4g	some-	.	.	.
.	.	8f#	-thing	.	.	.
.	.	[8e	there	.	.	.
=126	=126	=126	=126	=126	=126	=126
1GM	G:maj/5	8e]	_	.	201.677	.
.	.	4f#	to	.	.	.
.	.	8g	re-	.	.	.
.	.	8eq	_	.	.	.
.	.	4f#	-mind	.	.	.
.	.	8e	me	A	.	.
.	.	[8d	_	.	.	.
=127	=127	=127	=127	=127	=127	=127
1DM	D:maj	4d]	_	.	203.243	.
.	.	4r	.	.	.	.
.	.	2r	.	.	.	.
=128	=128	=128	=128	=128	=128	=128
1DM	D:maj	1r	.	.	204.809	.
=129	=129	=129	=129	=129	=129	=129
1DM	D:maj	4f#	Al-	.	206.374	.
.	.	4f#	-ways	.	.	.
.	.	4g	some-	.	.	.
.	.	8a	-thing	.	.	.
.	.	8f#q	_	.	.	.
.	.	[8e	there	.	.	.
=130	=130	=130	=130	=130	=130	=130
1GM	G:maj/5	4e]	_	.	207.94	.
.	.	8d	_	.	.	.
.	.	8B	re-	.	.	.
.	.	8e#q	_	.	.	.
.	.	4f#	-mind	.	.	.
.	.	8e#q	_	.	.	.
.	.	[4f#	me	A	.	.
=131	=131	=131	=131	=131	=131	=131
1DM	D:maj	2f#]	_	.	209.506	.
.	.	2r	.	.	.	.
=132	=132	=132	=132	=132	=132	=132
1DM	D:maj	1r	.	.	211.072	.
=133	=133	=133	=133	=133	=133	=133
1DM	D:maj	4f#	Al-	.	212.637	.
.	.	4f#	-ways	.	.	.
.	.	4g	some-	.	.	.
.	.	8f#	-thing	.	.	.
.	.	[8e	there	.	.	.
=134	=134	=134	=134	=134	=134	=134
1GM	G:maj/5	8e]	_	.	214.203	.
.	.	4f#	to	.	.	.
.	.	8g	re-	.	.	.
.	.	8eq	_	.	.	.
.	.	4f#	-mind	.	.	.
.	.	8e	me	A	.	.
.	.	[8d	_	.	.	.
=135	=135	=135	=135	=135	=135	=135
1DM	D:maj	4d]	_	.	215.769	.
.	.	4r	.	.	.	.
.	.	2r	.	.	.	.
=136	=136	=136	=136	=136	=136	=136
1DM	D:maj	1r	.	.	217.335	.
1r;	1r	r;	.	.	218.9	.
1r;	1r	r;	.	.	220.865	.
*-	*-	*-	*-	*-	*-	*-
!!!BillboardChartDate: 1983/03/19
!!!BillboardPeak: 8
!!!BillboardWeeksOnChart: 22
!!!COC: Naked Eyes
!!!ENC: Nathaniel Condit-Schultz
!!!EST: Awating manual error checking and editing.
!!!OTL: Always Something There To Remind Me
!!!RDF**chordsym: original McGill chord annotation + (implied pitch class set, with bass pitch in first position)
!!!RDF**harmony: **recip + pitch class of root + harmonic quality
!!!RDF**leadinstrument: original McGill primary instrumentation annotation
!!!RDF**phrase: newline = linebreak in original McGill transcription
!!!RDF**timestamp: McGill audio timestamp in seconds
!!!RDT: 2017/01/12/
!!!SampleActualRank: 79
!!!SampleID#: 0181
!!!SampleTargetRank: 80
!!!MBID: 0e9aecc8-49d5-4efc-95fc-a6365bd6d00a